src/assets/images/login/user_icon.svg

<svg width="28" height="28" viewBox="0 0 28 28" fill="none" xmlns="http://www.w3.org/2000/svg">
<path d="M10.6953 16.0979C5.24559 16.0979 1.17578 19.6292 1.17578 24.7573V25.3097C1.17578 27.9903 5.53695 27.9903 11.0589 27.9903H16.9236C22.2264 27.9903 26.8067 27.9903 26.8067 25.3097V24.7573C26.8067 19.6292 22.7369 16.0979 17.2872 16.0979H10.6953ZM13.6975 14.7482C18.0144 14.7482 21.5271 11.443 21.5271 7.37784C21.5271 3.31503 18.0144 0.00976562 13.6975 0.00976562C9.38299 0.00976562 5.87028 3.31503 5.87028 7.37784C5.87028 11.443 9.38299 14.7482 13.6975 14.7482Z" fill="#D0D0D0"/>
</svg>

<svg xmlns="http://www.w3.org/2000/svg" width="28" height="28" fill="none"><path fill="#D0D0D0" d="M10.695 16.098c-5.45 0-9.52 3.531-9.52 8.66v.552c0 2.68 4.362 2.68 9.884 2.68h5.865c5.302 0 9.883 0 9.883-2.68v-.553c0-5.128-4.07-8.66-9.52-8.66h-6.592Zm3.002-1.35c4.317 0 7.83-3.305 7.83-7.37 0-4.063-3.513-7.368-7.83-7.368C9.383.01 5.87 3.315 5.87 7.378c0 4.065 3.513 7.37 7.827 7.37Z"/></svg>
